src/icons/alarm.svg

<svg xmlns="http://www.w3.org/2000/svg"  viewBox="0 0 50 50" width="50px" height="50px"><path d="M 25 6 C 23.355469 6 22 7.355469 22 9 L 22 10.363281 C 17.171875 11.550781 14 15.613281 14 21.0625 L 14 28.863281 C 14 31.035156 12.71875 33.496094 11.980469 34.726563 L 10.167969 37.445313 C 9.964844 37.75 9.941406 38.148438 10.117188 38.472656 C 10.292969 38.796875 10.632813 39 11 39 L 39 39 C 39.367188 39 39.707031 38.796875 39.882813 38.472656 C 40.058594 38.148438 40.035156 37.753906 39.832031 37.445313 L 38.046875 34.765625 C 36.667969 32.472656 36 30.585938 36 29 L 36 21.199219 C 36 15.683594 32.828125 11.570313 28 10.371094 L 28 9 C 28 7.355469 26.644531 6 25 6 Z M 25 8 C 25.554688 8 26 8.445313 26 9 L 26 10.046875 C 25.671875 10.019531 25.339844 10 25 10 C 24.660156 10 24.328125 10.019531 24 10.046875 L 24 9 C 24 8.445313 24.445313 8 25 8 Z M 3.480469 9.476563 C 1.25 13.101563 0 17.417969 0 22 C 0 26.582031 1.25 30.898438 3.480469 34.523438 L 5.1875 33.476563 C 3.152344 30.167969 2 26.21875 2 22 C 2 17.78125 3.152344 13.832031 5.1875 10.523438 Z M 46.519531 9.476563 L 44.8125 10.523438 C 46.847656 13.832031 48 17.78125 48 22 C 48 26.21875 46.847656 30.167969 44.8125 33.476563 L 46.519531 34.523438 C 48.75 30.898438 50 26.582031 50 22 C 50 17.417969 48.75 13.101563 46.519531 9.476563 Z M 7.816406 12.140625 C 5.996094 15.082031 5 18.355469 5 22 C 5 25.671875 6.128906 29.046875 7.808594 31.847656 L 9.523438 30.816406 C 8.007813 28.285156 7 25.261719 7 22 C 7 18.710938 7.871094 15.851563 9.515625 13.191406 Z M 42.183594 12.140625 L 40.484375 13.191406 C 42.128906 15.851563 43 18.710938 43 22 C 43 25.261719 41.992188 28.285156 40.472656 30.816406 L 42.191406 31.847656 C 43.871094 29.046875 45 25.671875 45 22 C 45 18.355469 44.003906 15.082031 42.183594 12.140625 Z M 20.421875 41 C 21.199219 42.761719 22.953125 44 25 44 C 27.046875 44 28.800781 42.761719 29.578125 41 Z"/></svg>

<svg role="img" viewBox="0 0 50 50" xmlns="http://www.w3.org/2000/svg"><path d="M25 6c-1.645 0-3 1.355-3 3v1.363c-4.828 1.188-8 5.25-8 10.7v7.8c0 2.172-1.281 4.633-2.02 5.864l-1.812 2.718A1 1 0 0 0 11 39h28c.367 0 .707-.203.883-.527a1.001 1.001 0 0 0-.051-1.028l-1.785-2.68C36.668 32.474 36 30.586 36 29v-7.8c0-5.516-3.172-9.63-8-10.829V9c0-1.645-1.355-3-3-3m0 2c.555 0 1 .445 1 1v1.047c-.328-.027-.66-.047-1-.047-.34 0-.672.02-1 .047V9c0-.555.445-1 1-1M3.48 9.477C1.25 13.102 0 17.418 0 22s1.25 8.898 3.48 12.523l1.708-1.046C3.152 30.168 2 26.219 2 22s1.152-8.168 3.188-11.477Zm43.04 0-1.708 1.046C46.849 13.832 48 17.781 48 22s-1.152 8.168-3.187 11.477l1.707 1.046C48.75 30.898 50 26.582 50 22s-1.25-8.898-3.48-12.523M7.816 12.14C5.996 15.082 5 18.355 5 22c0 3.672 1.129 7.047 2.809 9.848l1.714-1.032C8.008 28.286 7 25.262 7 22c0-3.29.871-6.148 2.516-8.809Zm34.368 0-1.7 1.05C42.13 15.851 43 18.711 43 22c0 3.262-1.008 6.285-2.527 8.816l1.718 1.032C43.871 29.047 45 25.672 45 22c0-3.645-.996-6.918-2.816-9.86M20.422 41c.777 1.762 2.531 3 4.578 3s3.8-1.238 4.578-3Z"/></svg>
